packages/icons/src/garage-logo.svg

<svg width="24" height="24" viewBox="0 0 24 24" fill="none" xmlns="http://www.w3.org/2000/svg">
<path d="M13.2033 4.7808L12.0502 3H7.34499L6.21053 4.7808H10.1532L11.2877 6.5616L10.1532 8.3424H6.21053L7.34499 10.14H12.0502L13.2033 8.3424H22V4.7808H13.2033Z" fill="black"/>
<path d="M14.544 15L15.7359 13H20.7891L22 15H17.7961L16.5 17L17.7961 19H22L20.7904 21H15.7536L14.544 19H2V15H14.544Z" fill="black"/>
</svg>

<svg xmlns="http://www.w3.org/2000/svg" width="24" height="24" fill="none" viewBox="0 0 24 24">
  <path fill="#000" d="M13.203 4.78 12.05 3H7.345L6.211 4.78h3.942l1.135 1.782-1.135 1.78H6.211l1.134 1.798h4.705l1.153-1.798H22V4.781h-8.797ZM14.544 15l1.192-2h5.053L22 15h-4.204L16.5 17l1.296 2H22l-1.21 2h-5.036l-1.21-2H2v-4h12.544Z"/>
</svg>
